flaticon/army-badges/badge-4.svg

<svg xmlns="http://www.w3.org/2000/svg" width="32" height="32" viewBox="0 0 24 24">
    <path d="M 22.515625 16.820312 L 23.917969 15.097656 C 23.996094 14.980469 24.035156 14.777344 23.957031 14.660156 C 23.875 14.5 23.757812 14.417969 23.597656 14.417969 L 20.796875 14.417969 L 20.796875 13.21875 C 20.796875 12.980469 20.636719 12.820312 20.398438 12.820312 L 17.804688 12.820312 C 17.816406 12.777344 17.832031 12.730469 17.84375 12.6875 C 18.824219 12.453125 19.691406 11.914062 20.316406 11.140625 C 20.597656 10.820312 20.835938 10.421875 20.996094 10.019531 L 22.011719 7.453125 C 22.039062 7.414062 22.058594 7.367188 22.066406 7.316406 L 22.636719 5.875 C 22.675781 5.824219 22.703125 5.761719 22.710938 5.6875 L 23.265625 4.292969 C 23.316406 4.234375 23.347656 4.15625 23.355469 4.0625 L 23.957031 2.542969 C 23.996094 2.421875 23.996094 2.304688 23.917969 2.183594 C 23.835938 2.101562 23.714844 2.023438 23.597656 2.023438 L 17.597656 2.023438 C 17.476562 2.023438 17.359375 2.101562 17.277344 2.183594 L 15.605469 4.207031 L 12.238281 2.101562 C 12.078125 2.023438 11.921875 2.023438 11.800781 2.101562 L 8.410156 4.222656 L 6.722656 2.183594 C 6.640625 2.0625 6.523438 2.023438 6.402344 2.023438 L 0.402344 2.023438 C 0.285156 2.023438 0.164062 2.144531 0.0820312 2.222656 C 0.00390625 2.304688 -0.0351562 2.460938 0.0429688 2.582031 L 0.652344 4.109375 C 0.660156 4.167969 0.683594 4.21875 0.710938 4.261719 L 1.296875 5.730469 C 1.304688 5.773438 1.320312 5.8125 1.339844 5.84375 L 1.941406 7.351562 C 1.949219 7.375 1.957031 7.402344 1.96875 7.425781 L 3.003906 10.019531 C 3.164062 10.421875 3.402344 10.820312 3.683594 11.179688 C 4.3125 11.957031 5.183594 12.496094 6.164062 12.730469 C 6.175781 12.757812 6.183594 12.789062 6.195312 12.820312 L 3.601562 12.820312 C 3.363281 12.820312 3.203125 12.980469 3.203125 13.21875 L 3.203125 14.417969 L 0.402344 14.417969 C 0.242188 14.417969 0.125 14.539062 0.0429688 14.621094 C -0.0351562 14.777344 0.00390625 14.9375 0.0820312 15.058594 L 1.484375 16.820312 L 0.0820312 18.539062 C 0.00390625 18.65625 -0.0351562 18.859375 0.0429688 18.976562 C 0.125 19.136719 0.242188 19.21875 0.402344 19.21875 L 4.800781 19.21875 C 5.042969 19.21875 5.203125 19.058594 5.203125 18.816406 L 5.203125 17.617188 L 8.285156 17.617188 C 8.96875 18.703125 9.691406 19.710938 10.519531 20.578125 L 11.71875 21.855469 C 11.800781 21.9375 11.878906 21.976562 12 21.976562 C 12.121094 21.976562 12.199219 21.9375 12.28125 21.855469 L 13.480469 20.578125 C 14.308594 19.710938 15.070312 18.734375 15.722656 17.617188 L 18.796875 17.617188 L 18.796875 18.816406 C 18.796875 19.058594 18.957031 19.21875 19.199219 19.21875 L 23.597656 19.21875 C 23.757812 19.21875 23.875 19.136719 23.957031 19.019531 C 24.035156 18.859375 23.996094 18.699219 23.917969 18.578125 Z M 18.597656 6.0625 L 16.277344 4.621094 L 17.796875 2.824219 L 22.996094 2.824219 L 22.679688 3.621094 L 20.796875 3.621094 C 20.558594 3.621094 20.398438 3.78125 20.398438 4.023438 C 20.398438 4.261719 20.558594 4.421875 20.796875 4.421875 L 22.363281 4.421875 L 22.046875 5.222656 L 20.398438 5.222656 C 20.15625 5.222656 19.996094 5.382812 19.996094 5.621094 C 19.996094 5.863281 20.15625 6.023438 20.398438 6.023438 L 21.730469 6.023438 L 21.414062 6.820312 L 19.597656 6.820312 C 19.359375 6.820312 19.199219 6.980469 19.199219 7.222656 C 19.199219 7.460938 19.359375 7.621094 19.597656 7.621094 L 21.097656 7.621094 L 20.277344 9.699219 C 20.117188 10.019531 19.957031 10.339844 19.71875 10.621094 C 19.316406 11.140625 18.757812 11.539062 18.117188 11.78125 C 18.378906 10.710938 18.570312 9.632812 18.679688 8.570312 C 18.679688 8.5625 18.683594 8.554688 18.683594 8.546875 C 18.695312 8.425781 18.707031 8.304688 18.71875 8.183594 C 18.71875 8.15625 18.722656 8.128906 18.726562 8.101562 C 18.734375 7.972656 18.746094 7.847656 18.753906 7.71875 C 18.757812 7.679688 18.757812 7.636719 18.761719 7.597656 C 18.765625 7.507812 18.773438 7.421875 18.777344 7.335938 C 18.777344 7.285156 18.78125 7.234375 18.78125 7.183594 C 18.785156 7.097656 18.789062 7.015625 18.789062 6.929688 C 18.792969 6.886719 18.792969 6.84375 18.792969 6.800781 C 18.796875 6.671875 18.796875 6.546875 18.796875 6.421875 C 18.796875 6.300781 18.71875 6.183594 18.636719 6.101562 L 18.632812 6.097656 C 18.621094 6.085938 18.609375 6.074219 18.597656 6.0625 Z M 4.324219 10.621094 C 4.082031 10.339844 3.882812 10.019531 3.761719 9.699219 L 2.929688 7.621094 L 4.402344 7.621094 C 4.640625 7.621094 4.800781 7.460938 4.800781 7.222656 C 4.800781 6.980469 4.640625 6.820312 4.402344 6.820312 L 2.609375 6.820312 L 2.285156 6.023438 L 3.601562 6.023438 C 3.84375 6.023438 4.003906 5.863281 4.003906 5.621094 C 4.003906 5.382812 3.84375 5.222656 3.601562 5.222656 L 1.964844 5.222656 L 1.644531 4.421875 L 3.203125 4.421875 C 3.441406 4.421875 3.601562 4.261719 3.601562 4.023438 C 3.601562 3.78125 3.441406 3.621094 3.203125 3.621094 L 1.324219 3.621094 L 1.003906 2.824219 L 6.203125 2.824219 L 7.714844 4.65625 L 5.402344 6.101562 C 5.28125 6.140625 5.203125 6.300781 5.203125 6.421875 C 5.203125 6.550781 5.203125 6.679688 5.207031 6.808594 C 5.207031 6.851562 5.207031 6.894531 5.210938 6.9375 C 5.210938 7.023438 5.214844 7.109375 5.21875 7.191406 C 5.21875 7.246094 5.222656 7.300781 5.226562 7.355469 C 5.226562 7.425781 5.230469 7.492188 5.234375 7.5625 C 5.316406 8.957031 5.539062 10.382812 5.894531 11.769531 C 5.265625 11.527344 4.714844 11.132812 4.324219 10.621094 Z M 6.175781 8.988281 C 6.171875 8.957031 6.167969 8.925781 6.164062 8.894531 C 6.152344 8.824219 6.144531 8.75 6.136719 8.679688 C 6.128906 8.609375 6.121094 8.539062 6.113281 8.46875 C 6.109375 8.429688 6.105469 8.390625 6.101562 8.351562 C 6.09375 8.269531 6.085938 8.183594 6.078125 8.101562 C 6.074219 8.0625 6.074219 8.023438 6.070312 7.984375 C 6.0625 7.910156 6.058594 7.832031 6.050781 7.753906 C 6.042969 7.652344 6.039062 7.550781 6.03125 7.453125 C 6.03125 7.4375 6.03125 7.425781 6.03125 7.414062 C 6.015625 7.175781 6.007812 6.9375 6.003906 6.699219 L 8.519531 5.101562 C 8.566406 5.074219 8.605469 5.042969 8.636719 5.011719 L 12 2.902344 L 15.429688 5.050781 C 15.445312 5.070312 15.460938 5.085938 15.480469 5.101562 L 17.996094 6.703125 C 17.996094 7.054688 17.984375 7.410156 17.960938 7.769531 C 17.957031 7.835938 17.953125 7.902344 17.949219 7.964844 C 17.945312 8.007812 17.941406 8.054688 17.9375 8.097656 C 17.84375 9.230469 17.644531 10.394531 17.363281 11.53125 C 17.351562 11.570312 17.34375 11.609375 17.332031 11.644531 C 17.328125 11.660156 17.324219 11.675781 17.320312 11.6875 C 17.222656 12.066406 17.117188 12.445312 17 12.820312 L 16.140625 12.820312 C 16.753906 11.015625 17.125 9.125 17.199219 7.300781 C 17.199219 7.140625 17.117188 7.023438 17 6.941406 L 12.238281 3.941406 C 12.078125 3.863281 11.917969 3.863281 11.800781 3.941406 L 7.042969 6.941406 C 6.921875 7.023438 6.839844 7.140625 6.839844 7.300781 C 6.949219 9.089844 7.292969 11.007812 7.898438 12.820312 L 7.042969 12.820312 C 6.621094 11.558594 6.339844 10.265625 6.175781 8.988281 Z M 15.277344 12.820312 L 8.722656 12.820312 C 8.121094 11.101562 7.761719 9.261719 7.640625 7.5 L 12 4.78125 L 16.359375 7.5 C 16.238281 9.261719 15.878906 11.058594 15.277344 12.820312 Z M 4.003906 13.621094 L 19.996094 13.621094 L 19.996094 16.820312 L 4.003906 16.820312 Z M 12.839844 17.617188 C 12.558594 17.976562 12.28125 18.339844 12 18.65625 C 11.71875 18.339844 11.441406 17.976562 11.160156 17.617188 Z M 4.402344 18.417969 L 1.242188 18.417969 L 2.324219 17.058594 C 2.441406 16.9375 2.441406 16.738281 2.324219 16.578125 L 1.242188 15.21875 L 3.203125 15.21875 L 3.203125 17.21875 C 3.203125 17.457031 3.363281 17.617188 3.601562 17.617188 L 4.402344 17.617188 Z M 12.878906 20.058594 L 12 21.015625 L 11.121094 20.058594 C 10.441406 19.335938 9.800781 18.5 9.242188 17.617188 L 10.191406 17.617188 C 10.675781 18.3125 11.164062 18.945312 11.71875 19.539062 C 11.800781 19.617188 11.878906 19.65625 12 19.65625 C 12.121094 19.65625 12.199219 19.617188 12.359375 19.539062 L 12.398438 19.496094 C 12.917969 18.941406 13.40625 18.3125 13.886719 17.617188 L 14.757812 17.617188 C 14.160156 18.539062 13.558594 19.335938 12.878906 20.058594 Z M 19.597656 18.417969 L 19.597656 17.617188 L 20.398438 17.617188 C 20.636719 17.617188 20.796875 17.457031 20.796875 17.21875 L 20.796875 15.21875 L 22.757812 15.21875 L 21.675781 16.578125 C 21.558594 16.699219 21.558594 16.898438 21.675781 17.058594 L 22.757812 18.417969 Z M 19.597656 18.417969"/>
</svg>

<svg xmlns="http://www.w3.org/2000/svg" width="32" height="32" viewBox="0 0 24 24">
    <path d="M22.516 16.82l1.402-1.722c.078-.118.117-.32.039-.438-.082-.16-.2-.242-.36-.242h-2.8v-1.2c0-.238-.16-.398-.399-.398h-2.593c.011-.043.027-.09.039-.133a4.514 4.514 0 0 0 2.472-1.546c.282-.32.52-.72.68-1.121l1.016-2.567a.326.326 0 0 0 .054-.137l.57-1.441a.366.366 0 0 0 .075-.188l.555-1.394a.395.395 0 0 0 .09-.23l.601-1.52a.396.396 0 0 0-.039-.36c-.082-.081-.203-.16-.32-.16h-6c-.121 0-.239.079-.32.16l-1.673 2.024-3.367-2.105c-.16-.079-.316-.079-.437 0l-3.39 2.12-1.688-2.038a.363.363 0 0 0-.32-.16h-6c-.118 0-.239.12-.321.199-.078.082-.117.238-.039.359l.61 1.527c.007.059.03.11.058.153l.586 1.468a.326.326 0 0 0 .043.114l.601 1.508c.008.023.016.05.028.074l1.035 2.594c.16.402.398.8.68 1.16a4.532 4.532 0 0 0 2.48 1.55c.012.028.02.06.031.09H3.602c-.239 0-.399.16-.399.399v1.199h-2.8c-.16 0-.278.121-.36.203a.434.434 0 0 0 .039.438l1.402 1.761-1.402 1.72c-.078.116-.117.32-.039.437.082.16.2.242.36.242H4.8c.242 0 .402-.16.402-.403v-1.199h3.082c.684 1.086 1.406 2.094 2.235 2.961l1.199 1.277c.082.082.16.122.281.122.121 0 .2-.04.281-.122l1.2-1.277a15.847 15.847 0 0 0 2.242-2.96h3.074v1.198c0 .243.16.403.402.403h4.399c.16 0 .277-.082.359-.2a.44.44 0 0 0-.039-.44zM18.598 6.062l-2.32-1.44 1.519-1.798h5.2l-.317.797h-1.883c-.238 0-.399.16-.399.402 0 .239.16.399.399.399h1.566l-.316.8h-1.649c-.242 0-.402.16-.402.4 0 .241.16.401.402.401h1.332l-.316.797h-1.816c-.239 0-.399.16-.399.403 0 .238.16.398.399.398h1.5l-.82 2.078c-.16.32-.321.64-.56.922-.402.52-.96.918-1.6 1.16.26-1.07.452-2.148.562-3.21 0-.008.004-.016.004-.024l.035-.363c0-.028.004-.055.008-.082.007-.13.02-.254.027-.383.004-.04.004-.082.008-.121.004-.09.011-.176.015-.262 0-.05.004-.102.004-.152.004-.086.008-.168.008-.254.004-.043.004-.086.004-.13.004-.128.004-.253.004-.378 0-.121-.078-.238-.16-.32l-.004-.004-.035-.035zm-14.274 4.56a3.164 3.164 0 0 1-.562-.923L2.93 7.621h1.472c.239 0 .399-.16.399-.398 0-.243-.16-.403-.399-.403H2.61l-.324-.797h1.317c.242 0 .402-.16.402-.402 0-.238-.16-.398-.402-.398H1.965l-.32-.801h1.558c.238 0 .399-.16.399-.399 0-.242-.16-.402-.399-.402H1.324l-.32-.797h5.2l1.51 1.832-2.312 1.446c-.12.039-.199.199-.199.32a12.765 12.765 0 0 0 .008.516c0 .085.004.171.008.253 0 .055.004.11.008.164 0 .07.003.137.007.207.082 1.395.305 2.82.66 4.208a3.588 3.588 0 0 1-1.57-1.149zm1.852-1.634l-.012-.093c-.012-.07-.02-.145-.027-.215l-.024-.211-.011-.117-.024-.25c-.004-.04-.004-.079-.008-.118-.008-.074-.011-.152-.02-.23-.007-.102-.01-.203-.019-.3v-.04a14.569 14.569 0 0 1-.027-.715L8.52 5.102a.577.577 0 0 0 .117-.09L12 2.902l3.43 2.149c.015.02.03.035.05.05l2.516 1.602c0 .352-.012.707-.035 1.067l-.012.195-.012.133a21.954 21.954 0 0 1-.574 3.433c-.011.04-.02.078-.031.114A23.267 23.267 0 0 1 17 12.82h-.86c.614-1.805.985-3.696 1.06-5.52a.427.427 0 0 0-.2-.36l-4.762-3c-.16-.078-.32-.078-.437 0l-4.758 3a.422.422 0 0 0-.203.36c.11 1.789.453 3.707 1.058 5.52h-.855a20.233 20.233 0 0 1-.867-3.833zm9.101 3.832H8.723A20.584 20.584 0 0 1 7.64 7.5L12 4.781 16.36 7.5a20.953 20.953 0 0 1-1.083 5.32zm-11.273.801h15.992v3.2H4.004zm8.836 3.996c-.281.36-.559.723-.84 1.04-.281-.317-.559-.68-.84-1.04zm-8.438.801h-3.16l1.082-1.36c.117-.12.117-.32 0-.48l-1.082-1.36h1.961v2c0 .239.16.4.399.4h.8zm8.477 1.64l-.879.958-.879-.957a16.37 16.37 0 0 1-1.879-2.442h.95a17.01 17.01 0 0 0 1.527 1.922c.082.078.16.117.281.117.121 0 .2-.039.36-.117l.038-.043a16.249 16.249 0 0 0 1.489-1.879h.87c-.597.922-1.198 1.719-1.878 2.442zm6.719-1.64v-.8h.8c.239 0 .399-.161.399-.4v-2h1.96l-1.081 1.36c-.117.121-.117.32 0 .48l1.082 1.36zm0 0"/>
</svg>
